X:29
T:Suivons la maxime. [FJ29]
S:Festin joyeux.  Music page 15.
Z:transcribed by Eric Conrad, 2021.
N:NB The meter is given simply as "2"
N:NB In the MS, the G is the bottom line of the staff (lines: GBdfa)
N:NB MS has a four-dot repeat in the middle, with no marks at start or end.
N:NB Repeat marks were added at beginning and end.
N:NB The plus signs seem to indicate some kind of roll or trill.
N:NB1 MS has a half note (C2), changed to whole note here (C4).
M:2/2
L:1/4
% K:C clef=treble1 % Staff marked GBdfa as in MS
K:C
|: ccBc | dcde | edc2 :: cccB | A2d2 |
"^+"B2G2 | ABcB | A2d2 | "_NB1"c4 :|

